Hatter-kde/actions/16/mail-meeting-request-reply.svg

<?xml version="1.0" encoding="UTF-8"?>
<svg viewBox="0 0 16 16" xmlns="http://www.w3.org/2000/svg">
 <defs id="defs3051">
  <style id="current-color-scheme" type="text/css">.ColorScheme-Text {
        color:#363636;
      }
      .ColorScheme-NeutralText {
        color:#f67400;
      }</style>
 </defs>
 <path class="ColorScheme-Text" d="m7 2c-1.657 0-3 1.343-3 3s1.343 3 3 3 3-1.343 3-3-1.343-3-3-3m0 1c1.105 0 2 0.895 2 2s-0.895 2-2 2-2-0.895-2-2 0.895-2 2-2m0 6c-2.761 0-5 2.01-5 4.5 1e-3 0.167 0.012 0.334 0.033 0.5h9.93c0.023-0.166 0.035-0.333 0.037-0.5 0-2.485-2.239-4.5-5-4.5m0 1c1.987 2e-3 3.671 1.279 3.955 3h-7.91c0.284-1.721 1.968-2.998 3.955-3" fill="currentColor"/>
 <path class="ColorScheme-NeutralText" d="m13 2v4h1v-4h-1zm0 5v1h1v-1h-1z" fill="currentColor"/>
</svg>

<svg xmlns="http://www.w3.org/2000/svg" viewBox="0 0 16 16">
  <defs id="defs3051">
    <style type="text/css" id="current-color-scheme">
      .ColorScheme-Text {
        color:#363636;
      }
      .ColorScheme-NeutralText {
        color:#f67400;
      }
      </style>
  </defs>
  <path style="fill:currentColor;fill-opacity:1;stroke:none" 
     d="M 7,2 C 5.343,2 4,3.343 4,5 4,6.657 5.343,8 7,8 8.657,8 10,6.657 10,5 10,3.343 8.657,2 7,2 M 7,3 C 8.105,3 9,3.895 9,5 9,6.105 8.105,7 7,7 5.895,7 5,6.105 5,5 5,3.895 5.895,3 7,3 m 0,6 c -2.761,0 -5,2.01 -5,4.5 10e-4,0.167 0.012,0.334 0.033,0.5 l 9.93,0 C 11.986,13.834 11.998,13.667 12,13.5 12,11.015 9.761,9 7,9 m 0,1 c 1.987,0.002 3.671,1.279 3.955,3 l -7.91,0 C 3.329,11.279 5.013,10.002 7,10"
     class="ColorScheme-Text"
     />
  <path 
      d="m 13,2 0,4 1,0 0,-4 -1,0 z m 0,5 0,1 1,0 0,-1 -1,0 z"
     style="fill:currentColor;fill-opacity:1;stroke:none" 
     class="ColorScheme-NeutralText"
   />
</svg>
